X:16
T:Christ aujourd'hui nous appelle
M:C
L:1/8
K:A
[P:Refrain]"La"C2CD E2FE|"Mi"E3D "La"C4|"Fa#m"A2AG "Re"F2GA|"Mi4/3"E8|"Sim"DDDE F2GA|\
"La"A4 E4|
"Re"A3G F2GA|"Mi4/3"B4 z2cB|"Re"A4 "Mi"A2G2|"La"A4 z2:[P:Couplet]CC|"Fa#m"F2FG AAGF|
"Do#"G4 z2cB|"Fa#m"A2AG FFGA|"Do#"G4 z2AB|"La"c4 A2G2|"Re"F4 z2"Fa#"FF|"Sim"d3c B2A2|\
"Mi"B8||
